static/images/logos/trusted-by/oracle.svg

<svg xmlns="http://www.w3.org/2000/svg" width="136" height="17" viewBox="0 0 136 17" fill="none">
    <path fill-rule="evenodd" clip-rule="evenodd" d="M95.15 1.13848H97.9443V14.3171H110.059L108.28 16.8915H95.15V1.13848ZM73.2087 16.8915L62.8733 1.87933C62.238 0.904829 60.5441 0.904829 59.8237 1.91851L49.5734 16.8915H52.9621L56.0543 12.3681H62.6621L64.3993 9.79432H57.7916L61.3922 4.60908L69.8216 16.8915H73.2087ZM79.4976 1.14346C74.7757 1.14346 71.6672 4.66749 71.6672 9.015C71.6672 13.3618 74.7765 16.8872 79.4976 16.8872L90.9798 16.8744L92.7767 14.3228H79.582C76.3992 14.3228 74.5366 11.9463 74.5366 9.015C74.5366 6.08366 76.3984 3.70723 79.582 3.70723H91.3358L93.0707 1.13563L79.4976 1.14346ZM7.83121 3.70723H19.9448C23.1292 3.70723 24.991 6.08366 24.991 9.015C24.991 11.9463 23.1299 14.3228 19.9448 14.3228H7.83121C4.64688 14.3228 2.78581 11.9463 2.78581 9.015C2.78581 6.08366 4.64688 3.70723 7.83121 3.70723ZM7.83121 1.14346C3.1085 1.14346 0 4.66749 0 9.015C0 13.3618 3.1085 16.8872 7.83121 16.8872H19.9448C24.6675 16.8872 27.776 13.3618 27.776 9.015C27.776 4.66749 24.6675 1.14346 19.9448 1.14346H7.83121ZM113.045 10.263C113.5 12.5925 115.241 14.3228 117.959 14.3228H131.153L129.355 16.8744L117.874 16.8872C113.151 16.8872 110.044 13.3618 110.044 9.015C110.044 4.66749 113.152 1.14346 117.874 1.14346L131.447 1.13635L129.713 3.70795H117.96C115.28 3.70795 113.531 5.40905 113.046 7.69002H129.629L127.85 10.2638L113.045 10.263ZM43.5801 10.491C44.9113 10.4696 46.1801 9.96778 47.1133 9.09361C48.0464 8.21944 48.5693 7.04285 48.5693 5.81724C48.5693 4.59162 48.0464 3.41503 47.1133 2.54086C46.1801 1.66668 44.9113 1.16486 43.5801 1.14346L29.3268 1.13777V16.8908H32.4616V3.70795H43.5801C44.1878 3.70795 44.7706 3.93018 45.2003 4.32575C45.63 4.72131 45.8714 5.25782 45.8714 5.81724C45.8714 6.37665 45.63 6.91316 45.2003 7.30873C44.7706 7.70429 44.1878 7.92652 43.5801 7.92652H34.6639L44.7223 16.873H48.7686L41.5681 10.4967L43.5801 10.491ZM134.375 1.15273C135.102 1.15273 135.677 1.6813 135.677 2.38226C135.677 3.09461 135.102 3.61891 134.375 3.61891C133.639 3.61891 133.066 3.09461 133.066 2.38226C133.066 1.6813 133.639 1.15273 134.375 1.15273V0.90625C133.49 0.90625 132.743 1.53241 132.743 2.38154C132.743 3.23922 133.491 3.86538 134.375 3.86538C135.252 3.86538 136 3.23922 136 2.38154C136 1.53241 135.252 0.90625 134.375 0.90625V1.15273Z" fill="#ADADB0"/>
    <path fill-rule="evenodd" clip-rule="evenodd" d="M134.036 1.75314H134.42C134.615 1.75314 134.823 1.79231 134.823 2.00388C134.823 2.26603 134.611 2.28241 134.371 2.28241H134.036V2.50182H134.359L134.849 3.24196H135.163L134.635 2.49042C134.908 2.45908 135.116 2.32658 135.116 2.02098C135.116 1.68404 134.898 1.53516 134.461 1.53516H133.754V3.24196H134.035V1.75314H134.036Z" fill="#ADADB0"/>
</svg>

<svg xmlns="http://www.w3.org/2000/svg" width="136" height="17" fill="none"><path fill="#ADADB0" fill-rule="evenodd" d="M95.15 1.138h2.794v13.18h12.115l-1.779 2.574H95.15V1.138ZM73.209 16.892 62.873 1.879c-.635-.974-2.329-.974-3.05.04l-10.25 14.973h3.39l3.091-4.524h6.608L64.4 9.794h-6.607l3.6-5.185 8.43 12.283h3.387Zm6.289-15.749c-4.722 0-7.83 3.524-7.83 7.872 0 4.347 3.108 7.872 7.83 7.872l11.482-.013 1.797-2.551H79.582c-3.183 0-5.045-2.377-5.045-5.308s1.861-5.308 5.045-5.308h11.754l1.735-2.571-13.573.007ZM7.83 3.707h12.114c3.184 0 5.046 2.377 5.046 5.308s-1.861 5.308-5.046 5.308H7.83c-3.184 0-5.045-2.377-5.045-5.308s1.86-5.308 5.045-5.308Zm0-2.564C3.108 1.143 0 4.667 0 9.015c0 4.347 3.108 7.872 7.831 7.872h12.114c4.723 0 7.831-3.525 7.831-7.872 0-4.348-3.108-7.872-7.831-7.872H7.83Zm105.214 9.12c.455 2.33 2.196 4.06 4.914 4.06h13.194l-1.798 2.551-11.481.013c-4.723 0-7.83-3.525-7.83-7.872 0-4.348 3.108-7.872 7.83-7.872l13.573-.007-1.734 2.572H117.96c-2.68 0-4.429 1.701-4.914 3.982h16.583l-1.779 2.574-14.805-.001Zm-69.465.228c1.331-.021 2.6-.523 3.533-1.397.933-.875 1.456-2.051 1.456-3.277 0-1.225-.523-2.402-1.456-3.276-.933-.874-2.202-1.376-3.533-1.398l-14.253-.005V16.89h3.135V3.708H43.58c.608 0 1.19.222 1.62.618.43.395.671.932.671 1.491 0 .56-.241 1.096-.67 1.492a2.395 2.395 0 0 1-1.62.618h-8.917l10.058 8.946h4.047l-7.2-6.376 2.011-.006Zm90.795-9.338c.727 0 1.302.528 1.302 1.23 0 .712-.575 1.236-1.302 1.236-.736 0-1.309-.524-1.309-1.237 0-.7.573-1.23 1.309-1.23V.907c-.885 0-1.632.626-1.632 1.476 0 .857.748 1.483 1.632 1.483.877 0 1.625-.626 1.625-1.483 0-.85-.748-1.476-1.625-1.476v.247Z" clip-rule="evenodd"/><path fill="#ADADB0" fill-rule="evenodd" d="M134.036 1.753h.384c.195 0 .403.04.403.25 0 .263-.212.28-.452.28h-.335v.219h.323l.49.74h.314l-.528-.752c.273-.03.481-.163.481-.469 0-.337-.218-.486-.655-.486h-.707v1.707h.281V1.753h.001Z" clip-rule="evenodd"/></svg>
